X:1
T:Title
%%score { ( 1 4 ) | ( 2 3 ) }
L:1/8
M:6/8
K:Ab
V:1 treble nm="Grand Piano"
V:4 treble 
V:2 bass 
V:3 bass 
V:1
 z3 z2[Q:1/4=90] [CE] | [Ec]>[DB][CA] [CE][A,C][CE] | [DF][FA][FA] [FA]2 [CA]/A/ | B2 E/E/ BBc | %4
[M:5/8] B-B- B3 |[M:1/8] E |[M:3/4] [Ec]>[DB] [CA][CE] [A,C][CE] | [DF][FA] [FA] [FA]2 [=EB]/B/ | %8
 c2 Ac cB | [CA]6 | [FA]>[FA] [FA] [FA]2 [DF] | [CE]6 | [A,EA]>[A,EA] [A,EA] [EB]2 [Ec] | [EB]6 | %14
 c3 .A3 |[M:7/8] [FA]3 [Fd]3 z |[M:3/4] c>B AA GB |[M:5/8] [CA]-[CA]- [CA]3 |] %18
V:2
 z3 z2 [A,,A,] | [A,,A,]>[A,,E,][A,,E,] [A,,E,]2 [A,,A,] | [D,A,][D,D][D,D] [D,D]2 z/ C/ | %3
 [E,G,E]2 [E,G,] [E,G,E][E,G,E][E,A,E] |[M:5/8] [E,G,E]-[E,G,E]- [E,G,E]3 |[M:1/8] [E,G,] | %6
[M:3/4] [A,,A,]>[A,,E,] [A,,E,] [A,,E,]2 [A,,A,] | [D,A,][D,D] [D,D] [D,D]2 z/ =E/ | %8
 [E,A,E]2 [E,CE]E E[E,G,D] | [A,,A,]6 | [D,A,]>[D,D] [D,D] [D,D]2 [D,A,] | [A,,A,]2 A,, .A,,3 | %12
 C,>C, C, [B,,G,]2 [A,,A,] | [E,G,]2 E, .E,3 | [A,E]3 .[A,CE]3 |[M:7/8] [D,D]3 [D,A,]3 z | %16
[M:3/4] [E,A,E]>[E,DE] [E,CE][E,B,D] [E,B,D][E,G,D] |[M:5/8] [A,,E,A,]-[A,,E,A,]- [A,,E,A,]3 |] %18
V:3
 x6 | x6 | z3 z2 [F,A,] | x6 |[M:5/8] x5 |[M:1/8] x |[M:3/4] x6 | z2 z2 z [D,D] | z2 z .[E,A,]3 | %9
 x6 | x6 | x6 | x6 | x6 | x6 |[M:7/8] x7 |[M:3/4] x6 |[M:5/8] x5 |] %18
V:4
 x6 | x6 | x6 | x6 |[M:5/8] x5 |[M:1/8] x |[M:3/4] x6 | x6 | x6 | x6 | x6 | z2 A, .A,3 | x6 | %13
 z2 G, .G,3 | x6 |[M:7/8] x7 |[M:3/4] x6 |[M:5/8] x5 |] %18

